lib/brands/icons/uikit.svg

<svg xmlns="http://www.w3.org/2000/svg" fill="none" aria-hidden="true" viewBox="0 0 48 48"><g id="uikit-Icon"><path id="Vector" fill="#2396F3" d="M29.6642 9.45246L23.7229 6L17.5227 9.85127L23.5468 13.1794L29.6642 9.45246ZM32.5054 10.939L26.3698 14.6711L33.3238 18.6906V29.3094L23.9456 34.6395L14.6763 29.3094V21.0216L8.46045 17.9344V32.9353L23.7229 42L39.5396 33.0027V15.0026L32.5054 10.939Z"/></g></svg>

<svg xmlns="http://www.w3.org/2000/svg" fill="none" aria-hidden="true" viewBox="0 0 48 48"><path fill="#2396F3" d="M29.664 9.452 23.723 6l-6.2 3.851 6.024 3.328 6.117-3.727Zm2.841 1.487-6.135 3.732 6.954 4.02v10.618l-9.378 5.33-9.27-5.33v-8.287L8.46 17.934v15.001L23.723 42l15.817-8.997v-18l-7.035-4.064Z"/></svg>
